X:184
T: Aus der Passion
N: A0543A
O: Europa, Mitteleuropa, Deutschland
N: Coelner Gsgb. 1623 S. 137
R: Romanze, Ballade, Lied, religioeses Lied
M: 6/2
L: 1/2
K: F
F | F2cA2F | c2dc2
c | A2BccB | A2FG2G | F3z2
A | A2AABc | cBAG2
A | FGAc2B | AFAG2G | F3-F2

@@@ Tune index: 497
